assets/images/icons/cc.svg

<svg enable-background="new 0 0 512 512" viewBox="0 0 512 512" xmlns="http://www.w3.org/2000/svg"><path d="m458.667 85.333h-405.334c-29.397 0-53.333 23.936-53.333 53.334v234.667c0 29.397 23.936 53.333 53.333 53.333h405.333c29.397 0 53.333-23.936 53.333-53.333v-234.667c.001-29.398-23.935-53.334-53.332-53.334zm32 288c0 17.643-14.357 32-32 32h-405.334c-17.643 0-32-14.357-32-32v-234.666c0-17.643 14.357-32 32-32h405.333c17.643 0 32 14.357 32 32v234.666z"/><path d="m501.333 149.333h-490.666c-5.888 0-10.667 4.779-10.667 10.667v64c0 5.888 4.779 10.667 10.667 10.667h490.667c5.888 0 10.667-4.779 10.667-10.667v-64c-.001-5.888-4.78-10.667-10.668-10.667zm-10.666 64h-469.334v-42.667h469.333v42.667z"/><path d="m202.667 298.667h-128c-5.888 0-10.667 4.779-10.667 10.667s4.779 10.666 10.667 10.666h128c5.888 0 10.667-4.779 10.667-10.667s-4.779-10.666-10.667-10.666z"/><path d="m202.667 341.333h-128c-5.888 0-10.667 4.779-10.667 10.667s4.779 10.667 10.667 10.667h128c5.888 0 10.667-4.779 10.667-10.667-.001-5.888-4.779-10.667-10.667-10.667z"/><path d="m416 277.333h-21.333c-17.643 0-32 14.357-32 32v21.333c0 17.643 14.357 32 32 32h21.333c17.643 0 32-14.357 32-32v-21.333c0-17.642-14.357-32-32-32zm10.667 53.334c0 5.888-4.779 10.667-10.667 10.667h-21.333c-5.888 0-10.667-4.779-10.667-10.667v-21.333c0-5.888 4.779-10.667 10.667-10.667h21.333c5.888 0 10.667 4.779 10.667 10.667z"/></svg>

<?xml version="1.0" encoding="iso-8859-1"?>
<!-- Generator: Adobe Illustrator 19.0.0, SVG Export Plug-In . SVG Version: 6.00 Build 0)  -->
<svg version="1.1" id="Capa_1" xmlns="http://www.w3.org/2000/svg" xmlns:xlink="http://www.w3.org/1999/xlink" x="0px" y="0px"
	 viewBox="0 0 512 512" style="enable-background:new 0 0 512 512;" xml:space="preserve">
<g>
	<g>
		<path d="M458.667,85.333H53.333C23.936,85.333,0,109.269,0,138.667v234.667c0,29.397,23.936,53.333,53.333,53.333h405.333
			c29.397,0,53.333-23.936,53.333-53.333V138.667C512,109.269,488.064,85.333,458.667,85.333z M490.667,373.333
			c0,17.643-14.357,32-32,32H53.333c-17.643,0-32-14.357-32-32V138.667c0-17.643,14.357-32,32-32h405.333c17.643,0,32,14.357,32,32
			V373.333z"/>
	</g>
</g>
<g>
	<g>
		<path d="M501.333,149.333H10.667C4.779,149.333,0,154.112,0,160v64c0,5.888,4.779,10.667,10.667,10.667h490.667
			c5.888,0,10.667-4.779,10.667-10.667v-64C512,154.112,507.221,149.333,501.333,149.333z M490.667,213.333H21.333v-42.667h469.333
			V213.333z"/>
	</g>
</g>
<g>
	<g>
		<path d="M202.667,298.667h-128c-5.888,0-10.667,4.779-10.667,10.667S68.779,320,74.667,320h128
			c5.888,0,10.667-4.779,10.667-10.667S208.555,298.667,202.667,298.667z"/>
	</g>
</g>
<g>
	<g>
		<path d="M202.667,341.333h-128C68.779,341.333,64,346.112,64,352c0,5.888,4.779,10.667,10.667,10.667h128
			c5.888,0,10.667-4.779,10.667-10.667C213.333,346.112,208.555,341.333,202.667,341.333z"/>
	</g>
</g>
<g>
	<g>
		<path d="M416,277.333h-21.333c-17.643,0-32,14.357-32,32v21.333c0,17.643,14.357,32,32,32H416c17.643,0,32-14.357,32-32v-21.333
			C448,291.691,433.643,277.333,416,277.333z M426.667,330.667c0,5.888-4.779,10.667-10.667,10.667h-21.333
			c-5.888,0-10.667-4.779-10.667-10.667v-21.333c0-5.888,4.779-10.667,10.667-10.667H416c5.888,0,10.667,4.779,10.667,10.667
			V330.667z"/>
	</g>
</g>
<g>
</g>
<g>
</g>
<g>
</g>
<g>
</g>
<g>
</g>
<g>
</g>
<g>
</g>
<g>
</g>
<g>
</g>
<g>
</g>
<g>
</g>
<g>
</g>
<g>
</g>
<g>
</g>
<g>
</g>
</svg>
